X:1
T:Title
%%score { ( 1 3 ) | ( 2 4 ) }
L:1/8
M:6/8
K:Ab
V:1 treble nm="Grand Piano"
V:3 treble 
V:2 bass 
V:4 bass 
V:1
 z3 z2[Q:1/4=90] [CE] | [Ec][DB][CA] [CE]2 [CA] | [DA]3 [DG]2 E | dcB A2 B | c3- c2 [CE] | %5
 [Ec][DB][CA] [CE]2 [EA] |[M:5/8] [EG]3 [DF]2 |[M:1/8] [Fd] |[M:3/4] cB A B2 G | %9
[M:5/8] [CEA]-[CEA]- [CEA]3 |[M:3/4] [Ae]3 [Ac]3 | AB c [Ac]2 [GB] | [Gd]3 [GB]3 | GA B c3 | %14
 e3 [Ac]3 | AB c [Fd]2 [Fd] | cB A B2 G |[M:5/8] [CEA]-[CEA]- [CEA]3 |] %18
V:2
 z3 z2 [A,,A,] | [A,,A,][A,,A,][A,,A,] [A,,A,]2 [A,,E,] | [B,,E,]3 [B,,E,]2 [E,G,] | %3
 [E,B,E][E,A,E][E,G,D] [F,A,C]2 [E,G,E] | [A,E]3- [A,E]2 [A,,A,] | %5
 [A,,A,][A,,A,][A,,A,] [A,,A,]2 [C,A,] |[M:5/8] [D,A,]-[D,A,]- [D,A,]3 |[M:1/8] [D,A,] | %8
[M:3/4] [E,A,E][E,B,E] [E,CE] [E,DE]2 [E,DE] |[M:5/8] A,,-A,,- A,,3 | %10
[M:3/4] [A,C]A, A,A, A,[K:treble]A, | [A,E]-[A,DE] [A,EA][K:bass] [E,E]2 [E,E] | %12
 [E,B,]E, E,E, E,E, | [E,DE][F,CE][K:treble] [G,B,E] [A,E]3 | A-[A,A-] [A,A]A, A,A, | %15
 .C2 z2[K:bass] z2 | [E,A,E][E,B,E] [E,CE] [E,DE]2 [E,DE] |[M:5/8] A,,-A,,- A,,3 |] %18
V:3
 x6 | x6 | x6 | x6 | x6 | x6 |[M:5/8] x5 |[M:1/8] x |[M:3/4] x6 |[M:5/8] x5 |[M:3/4] z C CE EE | %11
 x6 | z B, B,D DD | x6 | z C CE EE | x6 | x6 |[M:5/8] x5 |] %18
V:4
 x6 | x6 | x6 | x6 | x6 | x6 |[M:5/8] x5 |[M:1/8] x |[M:3/4] x6 |[M:5/8] x5 | %10
[M:3/4] x5[K:treble] x | .C2 z2[K:bass] z2 | x6 | x2[K:treble] x4 | .[A,C]2 z2 z2 | %15
 [A,_G]-[A,B,G] [A,G][K:bass] [D,A,]2 [D,A,] | x6 |[M:5/8] x5 |] %18

